src/pos-icons/roller-skate-off.svg

<svg height="24" viewBox="0 0 24 24" width="24" xmlns="http://www.w3.org/2000/svg"><path d="m20.84 22.73-2.11-2.11c-.41.81-1.23 1.38-2.23 1.38-1.38 0-2.5-1.12-2.5-2.5 0-1 .57-1.82 1.38-2.23l-1.27-1.27h-10.11v-10.11l-2.89-2.89 1.28-1.27 19.72 19.73zm-1.84-7.73c0-5-5-5-5-5h-.8l5.52 5.5c.28-.23.28-.5.28-.5m-7.36-7.5-.21-1.5h-2.19v-1.5h1.97l-.21-1.5h-4.8l4.5 4.5zm-5.14 9.5c-1.38 0-2.5 1.12-2.5 2.5s1.12 2.5 2.5 2.5 2.5-1.12 2.5-2.5-1.12-2.5-2.5-2.5z"/></svg>

<?xml version="1.0" encoding="UTF-8"?><!DOCTYPE svg PUBLIC "-//W3C//DTD SVG 1.1//EN" "http://www.w3.org/Graphics/SVG/1.1/DTD/svg11.dtd"><svg xmlns="http://www.w3.org/2000/svg" xmlns:xlink="http://www.w3.org/1999/xlink" version="1.1" id="mdi-roller-skate-off" width="24" height="24" viewBox="0 0 24 24"><path d="M20.84 22.73L18.73 20.62C18.32 21.43 17.5 22 16.5 22C15.12 22 14 20.88 14 19.5C14 18.5 14.57 17.68 15.38 17.27L14.11 16H4V5.89L1.11 3L2.39 1.73L22.11 21.46L20.84 22.73M19 15C19 10 14 10 14 10H13.2L18.72 15.5C19 15.27 19 15 19 15M11.64 7.5L11.43 6H9.24V4.5H11.21L11 3H6.2L10.7 7.5H11.64M6.5 17C5.12 17 4 18.12 4 19.5S5.12 22 6.5 22 9 20.88 9 19.5 7.88 17 6.5 17Z" /></svg>
